X:1
T:Title
%%score { ( 1 4 ) | ( 2 3 ) }
L:1/8
Q:1/4=90
M:6/8
K:Eb
V:1 treble nm="Grand Piano"
V:4 treble 
V:2 bass 
V:3 bass 
V:1
 [GB][EG][FA] [GB][Ge][EAc] | [EGB]3 .[EG]3 | [FA][=EG][FA] [GB][FA][_EG] | [DF]6 | %4
w: Frank~M.~Davis * * * * *||||
 [B,GB][B,EG][B,FA] [B,GB][Ge][Ac] | [GB]3 .[EG]3 | FBd fec |[M:7/8] B2- [GB-] [AB]3 z | %8
w: ||||
[M:3/4] .E2 z .[EG]3 | e-[Ae-] [Be]2 .A2 | [GB][Ac] [GB][DFA] [DGB][B,FA] | [EG]6 | [GB]3 .[EG]3 | %13
w: |||||
 e-[Ae-] [Be]2 .A2 | BB B[DAB] [DAc][Ad] | e6 |] %16
w: |||
V:2
 [E,B,][E,B,][E,B,] [E,B,][E,B,]E, | z3 .B,3 | [B,,B,][B,,B,][B,,B,] [B,,B,][B,,B,][B,,B,] | %3
 B,,D,F, .B,3 | E,E,E, E,[E,B,][E,E] | [E,E]3 .[E,B,]3 | %6
 [F,B,D][F,B,D][F,B,F] [F,=A,F][F,CF][F,EF] |[M:7/8] z2 E F3 z |[M:3/4] E,E, E,E, .E,2 | %9
 [E,B,][F,B,][K:treble] [G,E][A,EA][K:bass] .[A,E]2 | [E,E][E,E] [E,E]B,, B,,B,, | E,G, B, .E,3 | %12
 E,E, E,E, .E,2 | [E,B,][F,B,][K:treble] [G,E][A,EA] .[A,E]2 | %14
 [B,EG][B,EG] [B,EG][K:bass]B,, B,,[B,,B,] | B,B, C .B,3 |] %16
V:3
 x6 | E,6 | x6 | x6 | x6 | x6 | x6 |[M:7/8] B,,-B,,-B,,- B,,3 z |[M:3/4] x6 | %9
 x2[K:treble] x2[K:bass] x2 | x6 | x6 | x6 | x2[K:treble] x4 | x3[K:bass] x3 | E,6 |] %16
V:4
 x6 | x6 | x6 | B,3 z3 | x6 | x6 | x6 |[M:7/8] [DF]2 z z z z2 |[M:3/4] [GB]-[EG-B-] [EGB]B, .B,2 | %9
 .G2 z .c3 | x6 | B,B, z .B,3 | EE EB, .B,2 | .G2 z .c3 | x6 | GG A .G3 |] %16

